Papirus/22x22/panel/teamviewer-indicator-busy.svg

<?xml version="1.0" encoding="UTF-8" standalone="no"?>
<svg xmlns:dc="http://purl.org/dc/elements/1.1/" xmlns:cc="http://creativecommons.org/ns#" xmlns:rdf="http://www.w3.org/1999/02/22-rdf-syntax-ns#" xmlns:svg="http://www.w3.org/2000/svg" xmlns="http://www.w3.org/2000/svg" version="1.1" id="svg2" height="22" viewBox="0 0 6.208889 6.208889" width="22">
    <metadata id="metadata16">
        <rdf:RDF>
            <cc:Work rdf:about="">
                <dc:format>
                    image/svg+xml
                </dc:format>
                <dc:type rdf:resource="http://purl.org/dc/dcmitype/StillImage"/>
                <dc:title/>
            </cc:Work>
        </rdf:RDF>
    </metadata>
    <path id="path4142" transform="scale(0.28222222,0.28222222)" d="M 10 3 A 7.9999994 7.9999994 0 0 0 2 11 A 7.9999994 7.9999994 0 0 0 10 19 A 7.9999994 7.9999994 0 0 0 14.705078 17.458984 L 12.587891 15.34375 L 14.707031 13.224609 L 15.412109 12.511719 L 17.253906 14.353516 A 7.9999994 7.9999994 0 0 0 18 11 A 7.9999994 7.9999994 0 0 0 10 3 z M 8 8 L 8 9.9980469 L 12 9.9980469 L 12 8 L 15 11 L 12 14 L 12 12.001953 L 8 12.001953 L 8 14 L 5 11 L 8 8 z M 15.414062 13.929688 L 14 15.34375 L 16.123047 17.464844 L 14 19.587891 L 15.414062 21 L 17.535156 18.878906 L 19.658203 21 L 21.070312 19.587891 L 18.949219 17.464844 L 21.070312 15.34375 L 19.658203 13.929688 L 17.535156 16.052734 L 15.414062 13.929688 z " style="opacity:1;fill:#ffffff;fill-opacity:1;stroke:none;stroke-width:2;stroke-linecap:round;stroke-linejoin:round;stroke-miterlimit:4;stroke-dasharray:none;stroke-opacity:1"/>
    <g transform="matrix(0.28222222,0,0,0.28222222,-4.0521466,-2.3834898)" id="g4146" style="fill:none;fill-opacity:1">
        <path d="m 30.565,21.238 1.414,1.414 -1.793,1.793 5.172,0 0,2 -5.172,0 1.793,1.793 -1.414,1.414 -4.207,-4.207 z" style="opacity:1;fill:none;fill-opacity:1;fill-rule:nonzero;stroke:none" id="path4148"/>
    </g>
</svg>

<?xml version="1.0" encoding="UTF-8" standalone="no"?>
<svg id="svg2" xmlns:rdf="http://www.w3.org/1999/02/22-rdf-syntax-ns#" xmlns="http://www.w3.org/2000/svg" height="22" viewBox="0 0 6.208889 6.208889" width="22" version="1.1" xmlns:cc="http://creativecommons.org/ns#" xmlns:dc="http://purl.org/dc/elements/1.1/">
 <metadata id="metadata16">
  <rdf:RDF>
   <cc:Work rdf:about="">
    <dc:format>image/svg+xml</dc:format>
    <dc:type rdf:resource="http://purl.org/dc/dcmitype/StillImage"/>
    <dc:title/>
   </cc:Work>
  </rdf:RDF>
 </metadata>
 <path id="path4142" d="m10 3a8 8 0 0 0 -8 8 8 8 0 0 0 8 8 8 8 0 0 0 4.705 -1.541l-2.117-2.115 2.119-2.119 0.705-0.713 1.842 1.842a8 8 0 0 0 0.746 -3.354 8 8 0 0 0 -8 -8zm-2 5v1.998h4v-1.998l3 3-3 3v-1.998h-4v1.998l-3-3 3-3zm7.414 5.93l-1.414 1.414 2.123 2.121-2.123 2.123 1.414 1.412 2.121-2.121 2.123 2.121 1.412-1.412-2.121-2.123 2.121-2.121-1.412-1.414-2.123 2.123-2.121-2.123z" transform="scale(.28222)" fill="#fff"/>
 <g id="g4146" fill="none" transform="matrix(.28222 0 0 .28222 -4.0521 -2.3835)">
  <path id="path4148" fill="none" d="m30.565 21.238 1.414 1.414-1.793 1.793h5.172v2h-5.172l1.793 1.793-1.414 1.414-4.207-4.207z"/>
 </g>
</svg>
